svgs/sharp-solid/house-tree.svg

<svg xmlns="http://www.w3.org/2000/svg" viewBox="0 0 640 512"><!--! Font Awesome Pro 6.6.0 by @fontawesome - https://fontawesome.com License - https://fontawesome.com/license (Commercial License) Copyright 2024 Fonticons, Inc. --><path d="M640 464l0 48-224 0 0-256 0-15-11.5-9.6L277 125.1 416 0 576 144l0 48-64 0 96 112 0 48-64 0 96 112zM0 256L192 96 384 256l0 256L0 512 0 256zm240 16l-96 0 0 96 96 0 0-96z"/></svg>

<svg xmlns="http://www.w3.org/2000/svg" viewBox="0 0 640 512"><!--! Font Awesome Pro 6.4.0 by @fontawesome - https://fontawesome.com License - https://fontawesome.com/license (Commercial License) Copyright 2023 Fonticons, Inc. --><path d="M640 464v48H416V256 241l-11.5-9.6L277 125.1 416 0 576 144v48H512l96 112v48H544l96 112zM0 256L192 96 384 256V512H0V256zm240 16H144v96h96V272z"/></svg>
